resources/svg/message.svg

<svg width="15" height="15" viewBox="0 0 15 15" fill="none" xmlns="http://www.w3.org/2000/svg">
<path d="M1.5 0C0.671165 0 0 0.670259 0 1.49935V10.4935C0 11.3226 0.671165 11.9928 1.5 11.9928H5.2325L7.08406 14.7683C7.1768 14.9074 7.33288 14.9909 7.5 14.9909C7.66712 14.9909 7.8232 14.9074 7.91594 14.7683L9.7675 11.9928H13.5C14.3288 11.9928 15 11.3226 15 10.4935V1.49935C15 0.670259 14.3288 0 13.5 0H1.5Z" fill="black"/>
</svg>

<svg viewBox="0 0 15 15" fill="none" xmlns="http://www.w3.org/2000/svg" fill="currentColor"><path d="M1.5 0C.671 0 0 .67 0 1.5v8.993c0 .83.671 1.5 1.5 1.5h3.732l1.852 2.775a.5.5 0 00.832 0l1.851-2.775H13.5c.829 0 1.5-.67 1.5-1.5V1.5c0-.83-.671-1.5-1.5-1.5h-12z" fill="currentColor"/></svg>
